X: 26790
T: Miller Of Drone, The
R: strathspey
M: 4/4
K: Amajor
(3AcB|A>FF<A E>FE>C|A,/A,/A, A,>c B/A/B (3BcB|A>FF<A E>FE<C|D>FE>G A2(3AcB|
A>FF<A E>FE>C|A,/A,/A, A,>c B/A/B (3Bcd|e>Bc>G A>EF<C|D<F E<G A2 (3Acd||
e>cc<a e>e f/e/d/c/|e>cc<a f2 (3fga|e>cc<a e>e f/e/d/c/|d>Bc<A [EA]<[FA] (3Acd|
e>cc<a e>e f/e/d/c/|e>ga>g f>ef>g|(3agf (3efg (3aed (3cBA|(3dcB (3cBA (3Ffe (3dcB||

